X:1
T:24 Arie Antiche
T:Per la gloria d'adorarvi (del opera Griselda)
T:Per la gloria d'adorarvi 
T:Giovanni Battista Bononcini (1670-1747) Alessandro Parisotti (1853-1913)
T:(24 Arie Antiche) Aria
T:Low voices Del opera Griselda Apostolo Zeno (1668-1750)
T:Creative Commons copyright waiver (CC0 1.0 Universal)
T:Creative Commons copyright waiver (CC0 1.0 Universal)
T:Creative Commons copyright waiver (CC0 1.0 Universal)
T:Creative Commons copyright waiver (CC0 1.0 Universal)
T:Creative Commons copyright waiver (CC0 1.0 Universal)
T:Creative Commons copyright waiver (CC0 1.0 Universal)
T:Creative Commons copyright waiver (CC0 1.0 Universal)
T:Creative Commons copyright waiver (CC0 1.0 Universal)
C:Giovanni Battista Bononcini (1670-1747)
Z:Apostolo Zeno (1668-1750)
Z:Creative Commons copyright waiver (CC0 1.0 Universal)
%%score ( 1 2 ) { ( 3 4 7 ) | ( 5 6 ) }
L:1/8
Q:1/4=80
M:3/4
K:D
V:1 treble nm="Voice"
V:2 treble 
V:3 treble nm="Piano"
V:4 treble 
V:7 treble 
V:5 bass 
V:6 bass 
V:1
"^Andante" z6 | z6 | z6 | z6 | z6 | x6 | z6 | z6 |!mf! (!>!A3 G) F2 | (GE A2) G2 | (FD B2) D2 | %11
w: ||||||||Per- * la|Glo- * * ria|d'a- * * do-|
 (D2 C2) D2 | E2 F4 | (GF) (GE) (FD) | B2 TE4 | D4 z2 |!pp! (A3 G) F2 | (GE A2) G2 | (FD B2) D2 | %19
w: rar- * vi|vo- glioa-|mar- * vi,o * lu- *|ci ca-|re;|per- * la|glo- * * ria|d'a- * * do-|
 (D2 C2) D2 | E2 F4 | (GF) (GE) (FD) | B2 TE4 | D4 z2 |!mf! (AG) F E D =C | (=C2 B,4) | %26
w: rar- * vi|vo- glioa-|mar- * vi,o * lu- *|ci ca-|re.|A- * man- do pe- ne-|rò, _|
!f! (BA) G F E D | (D2 ^C4) | D2 z2 z2 | G2- G z/ E/ F2- | F3/2 G/ E4 | D4 z2 |!mf! (AG) F E D =C | %33
w: ma * sem- pre v'a- me-|rò, _|sì,|sì, _ nel mio|_ pe- na-|re:|A- * man- do pe- ne-|
 (=C2 B,4) |!f! (BA) G F E D | (D2 ^C4) | D2 z2 z2 | G2- G z/ E/ F2 | F3/2 G/ E4 | D4 z2 | %40
w: rò, _|ma * sem- pre v'a- me-|rò, _|sì,|sì, _ nel mio|_ pe- na-|re,|
!f![Q:1/4=60] A3 (G/A/) B2 | c3 (B/c/) d2 |[Q:1/4=50] D E{/F} TE4 |[Q:1/4=60] D4 z2 | %44
w: pe- ne- * rò,|v'a- me- * rò,|lu- ci ca-|re,|
!p! A3 (G/A/)[Q:1/4=50] B2 | c3 (B/c/)[Q:1/4=30] !fermata!d2 |[Q:1/4=50] D E{/F} TE4 | D4 z2 | %48
w: pe- ne- * rò,|v'a- me- * rò,|lu- ci ca-|re.|
[Q:1/4=76] z6 | z6 | z6 | z6 | z6 | z6 | z6 | z6 |!f! (A3 G) F2 | (GE A2) G2 | (FD B2) D2 | %59
w: ||||||||Sen- * za|spe- * * me|di _ _ di-|
 (D2 C2) D2 | (E2 F3) F | (GF) (GE) (FD) | B2 TE4 | D4 z2 |!pp! (A3 G) F2 | (GE A2) G2 | %66
w: let- * to|va- no af-|fet- * toè _ so- *|spi- ra-|re,|sen- * za|spe- * * me|
 (FD B2) D2 | (D2 C2) D2 | (E2 F3) F | (GF) (GE) (FD) | B2 E4 | D4 z2 |!mf! A G F E D =C | %73
w: di _ _ di-|let- * to|va- no af-|fet- * toè _ so- *|spi- ra-|re,|ma i vo- stri dol- ci|
 (=C2 B,4) |!f! (BA) G F E D | (D2 ^C4) | D2 z2 z2 | G2- G z/ E/ F2- | F3/2 G/ E4 | D4 z2 | %80
w: ra- i|chi _ va- gheg- giar può|mai _|e|non, _ e non|_ v'a- ma-|re?|
!mf! A G F E D =C | (=C2 B,4) |!f! (BA) G F E D | (D2 ^C4) | D2 z2 z2 | G2- G z/ E/ F2- | %86
w: ma i vo- stri dol- ci|ra- i|chi- * va- gheg- giar può|mai _|e|non, _ e non|
 F3/2 G/ E4 | D4 z2 |!f![Q:1/4=60] A3 (G/A/) B2 | c3 (B/c/) d2 |[Q:1/4=50] D E{/F} TE4 | %91
w: _ v'a- ma-|re?|pe- ne- * rò,|v'a- me- * rò,|lu- ci ca-|
[Q:1/4=60] D4 z2 |!p! A3 (G/A/) B2 |[Q:1/4=50] c3 (B/c/)[Q:1/4=40] !fermata!d2 | %94
w: re,|pe- ne- * rò,|v'a- me- * rò,|
[Q:1/4=50] D E{/F} TE4 | D4 z2 |[Q:1/4=76] z6 | z6 | z6 | z6 | z6 | z6[Q:1/4=70] | z6[Q:1/4=60] | %103
w: lu- ci ca-|re!||||||||
[Q:1/4=50] z6 |] %104
w: |
V:2
 x6 | x6 | x6 | x6 | x6 | x6 | x6 | x6 | x6 | x6 | x6 | x6 | x6 | x6 | x5 D/E/ | x6 | x6 | x6 | %18
 x6 | x6 | x6 | x6 | x5 D/E/ | x6 | x6 | x6 | x6 | x6 | x6 | x6 | x6 | x6 | x6 | x6 | x6 | x6 | %36
 x6 | x6 | x6 | x6 | x6 | x6 | x6 | x6 | x6 | x6 | x6 | x6 | x6 | x6 | x6 | x6 | x6 | x6 | x6 | %55
 x6 | x6 | x6 | x6 | x6 | x6 | x2 G E x2 | x5 D/E/ | x6 | x6 | x6 | x6 | x6 | x6 | x2 G E x2 | x6 | %71
 x6 | x6 | x6 | x6 | x6 | x6 | x6 | x6 | x6 | x6 | x6 | x6 | x6 | x6 | x6 | x6 | x6 | x6 | x6 | %90
 x6 | x6 | x6 | x6 | x6 | x6 | x6 | x6 | x6 | x6 | x6 | x6 | x6 | x6 |] %104
V:3
!f! (!>![fa]3 [eg] [df]2) | ([eg]e) !>![ea]2 !>![cg]2 | (fd) !>!b2 !>!d2 | d2 (Tc2{Bc} d2) | %4
 e2 !>!f4 | (gfgefd) | b2 Te4 | [FAd]6 |!mf! (!>![FA]3 [EG] [DF]2) | ([B,EG]2 [A,EA]2 [CEG]2) | %10
 ([DF]2 [DEB]2 [DE]2) | ([DE]2 [CE]2) ([A,DA]2 | [A,EA]2 [A,FA]2 [A,FA]2 | %13
 [A,CG]2 [A,EG]2 [A,DF]2 | [B,DB]2) [A,DE]2 [G,CE]2 | [F,A,D]4 z2 |!pp! ([A,F]3 [G,E] [F,D]2) | %17
 B,2 A,2 C2 | (D4 [DE]2) | ([DE]2 [CE]2 [A,D]2) |!pp! (EA,FA,AA, | [CG]A,[EG]A,[DF]A,) | %22
 [B,DG]2 [A,D]2 [G,C]2 | [F,A,D]4 z2 |!mf! [A,DA]2 z2 [A,DA]2 | (=C2 B,2) [DB]2 | %26
!f! [B,DB]2 z2 [B,EB]2 | E4 E2 | (AGAFBA) | GFGE F2- | FG [A,D]2 [G,C]2 | [F,A,D]4 z2 | %32
!mf! [A,DA]2 z2 [A,DA]2 | (=C2 B,2) B2 |!f! [B,DB]2 z2 [B,EB]2 | E4 E2 | (AGAFBA) | (GFGE) F2- | %38
 FG [A,D]2 [G,C]2 | ([F,A,D]CDA,DA,) |!f! [DA]2 z2 [B,DB]2 | [EGc]2 z2 [DFd]2 | (DE) E4 | %43
 ([F,A,D]CDA,DA,) |!p! [DA]2 z2 [B,DB]2 | [EGc]2 z2 !fermata![DFd]2 | (DE) [A,D]2 [G,C]2 | %47
 [F,A,D]4 z2 |!ff! (!>![fa]3 [eg] [df]2) | ([eg]e) !>![ea]2 !>![cg]2 | (fd) !>!b2 !>!d2 | %51
 d2 (Tc2{Bc} d2) | e2 !>!f4 | (gfgefd) | b2 Te4 | [FAd]6 |!f! (!>![FA]3 [EG] [DF]2) | %57
 ([B,EG]2 [A,EA]2 [CEG]2) | ([DF]2 [DEB]2 [DE]2) | ([DE]2 [CE]2 [A,DA]2) | %60
 ([A,EA]2 [A,FA]2 [A,FA]2) | ([A,CG]2 [A,EG]2 [A,DF]2) | ([B,DB]2 [A,DE]2 [G,CE]2) | [F,A,D]4 z2 | %64
!pp! ([A,F]3 [G,E] [F,D]2) | (B,2 A,2 C2) | (D4 [DE]2) | ([DE]2 [CE]2 [A,DA]2) |!pp! (EA,FA,AA,) | %69
!p! ([CG]A,[EG]A,[DF]A,) | ([B,DG]2 [A,D]2 [G,C]2 | [F,A,D]4) z2 |!mf! [A,DA]2 z2 [A,DA]2 | %73
 (=C2 B,2) B2 |!f! [B,DB]2 z2 [B,EB]2 | E4 E2 | (AGAFBA) | (GFGE) F2- | FG [A,D]2 [G,C]2 | %79
 [F,A,D]4 z2 |!mf! [A,DA]2 z2 [A,DA]2 | (=C2 B,2) [DB]2 |!f! [B,DB]2 z2 [B,EB]2 | E4 E2 | %84
 (AGAFBA) | (GFGE) F2- | FG [A,D]2 [G,C]2 | ([F,A,D]CDA,DA,) |!f! [DA]2 z2 [B,DB]2 | %89
 [EGc]2 z2 [DFd]2 | ([A,D][B,E]) E4 | ([F,A,D]CDA,DA,) |!p! [DA]2 z2 [B,DB]2 | %93
 [EGc]2 z2 !fermata![DFd]2 | ([A,D][B,E]) E4 | ([F,A,D]CDA,DA,) |!ff! ([fa]3 [eg] [df]2) | %97
 ([eg]e) !>![ea]2 !>![cg]2 | (fd) !>!b2 !>!d2 | !>!d2 (Tc2{Bc} d2) | e2 !>!f4 | (gfgefd) | %102
!ff! b2 !>!Te4 | [FAd]4 z2 |] %104
V:4
 A6 | B2 A4 | [Ad]2 [Bd]2 [EB]2 | [EA]4 [DA]2 | [GA]2 [FAd]4 | [Ac]2 [Ae]2 [Ad]2 | %6
 [Bd]2 [Ad]2 [Gc]2 | x6 | A,6 | x6 | x6 | x6 | x6 | x6 | x6 | x6 | x6 | G,6 | ([F,A,]2 B,2 B,2) | %19
 x6 | x6 | x6 | x2 E4 | x6 | x6 | D4 B,2 | x6 | D2 ^C2 C2 | D2 D2 D2 | D2 B,A, D2- | D[B,D] E4 | %31
 x6 | x6 | D4 [B,D]2 | x6 | (D2 ^C2) C2 | D2 D2 D2 | D2 B,A, D2- | D[B,D] E4 | x6 | x6 | x6 | %42
 (A,B,) [A,D]2 [G,C]2 | x6 | x6 | x6 | (A,B,) E4 | x6 | A6 | B2 A4 | [Ad]2 [Bd]2 [EB]2 | %51
 [EA]4 [DA]2 | [GA]2 [FAd]4 | [Ac]2 [Ae]2 [Ad]2 | [Bd]2 [Ad]2 [Gc]2 | x6 | A,6 | x6 | x6 | x6 | %60
 x6 | x6 | x6 | x6 | x6 | G,6 | [F,A,]2 B,2 B,2 | x6 | x6 | x6 | x2 E4 | x6 | x6 | D4 [B,D]2 | x6 | %75
 (D2 ^C2) C2 | D2 D2 D2 | D2 B,A, D2- | D[B,D] E4 | x6 | x6 | D4 B,2 | x6 | (D2 ^C2) C2 | %84
 D2 D2 D2 | D2 CA, D2- | D[B,D] E4 | x6 | x6 | x6 | x2 [A,D]2 [G,C]2 | x6 | x6 | x6 | %94
 x2 [A,D]2 [G,C]2 | x6 | A6 | B2 A4 | [Ad]2 [Bd]2 [EB]2 | [EA]4 [DA]2 | [GA]2 [FAd]4 | %101
 [Ac]2 [Ae]2 [Ad]2 | [Bd]2 [Ad]2 [Gc]2 | x6 |] %104
V:5
 D,,2 D,2 D,2- | [D,,D,]2 [C,,C,]2 [A,,,A,,]2 | [D,,D,]2 ([G,,G,]2 [^G,,^G,]2) | %3
 ([A,,A,]3 [=G,,=G,] [F,,F,]2) | [C,,C,]2 [D,,D,]2 [D,,D,]2 | [E,,E,]2 [C,,C,]2 [D,,D,]2 | %6
 [G,,G,]2 A,2 A,,2 | (D,C,D,A,,F,,A,,) | D,,2 z2 A,2 | (D,2 C,2 A,,2) | A,2 G,2 ^G,2 | %11
 (A,3 =G, F,2) | (C,2 D,2 D,,2 | E,2 C,2 D,2 | G,,2) A,,2- [A,,,A,,]2 | ([D,,A,,]C,D,A,,F,,A,,) | %16
 D,,2 z2 D,2- | E,6 | (C,2 G,2 ^G,2) | (A,3 =G, F,2) |"^dolce" C,2 D,2 D,,2 | E,2 C,2 D,2 | %22
 G,,2 A,,2- [A,,,A,,]2 | ([D,,A,,]C,D,A,,D,A,,) | F,,2 z2 F,2 | (G,F,G,B,,D,B,,) | G,,2 z2 ^G,2 | %27
 (A,^G,A,E,A,=G,) | (F,E,F,D,G,F,) | (E,D,E,C,D,A,,) | (B,,G,,) A,,2- [A,,,A,,]2 | %31
 ([D,,A,,]C,D,A,,D,A,,) | F,,2 z2 F,2 | (G,F,G,B,,D,B,,) | G,,2 z2 ^G,2 | (A,^G,A,E,A,=G,) | %36
 (F,E,F,D,G,F,) | (E,D,E,C,D,A,,) | (B,,G,,) A,,2- [A,,,A,,]2 | ([D,,A,,]C,D,A,,D,A,,) | %40
 F,,2 z2 G,,2 | A,,2 z2 B,,2 | (F,,G,,) A,,2- [A,,,A,,]2 | [D,,A,,]C,D,A,,D,A,, | F,,2 z2 G,,2 | %45
 A,,2 z2 !fermata!B,,2 | (F,,G,,) A,,2- [A,,,A,,]2 | [D,,A,,]C,D,A,,D,A,, | %48
"^deciso" D,,2 D,2 D,2- | ([D,,D,]2 [C,,C,]2 [A,,,A,,]2 | [D,,D,]2) ([G,,G,]2 [^G,,^G,]2) | %51
 ([A,,A,]3 [=G,,=G,] [F,,F,]2) | [C,,C,]2 [D,,D,]2 [D,,D,]2 | [E,,E,]2 [C,,C,]2 [D,,D,]2 | %54
 [G,,G,]2 A,2 A,,2 | (D,C,D,A,,F,,A,,) | D,,2 z2 D,2- | E,4 A,2 | A,2 G,2 ^G,2 | (A,3 =G, F,2) | %60
 C,2 D,2 D,,2 | E,2 C,2 D,2 | G,,2 A,,2- [A,,,A,,]2 | ([D,,A,,]C,D,A,,F,,A,,) | D,,2 z2 D,2- | %65
 (D,2 C,2 A,,2) | (D,2 G,2 ^G,2) | (A,3 =G, F,2) |"^dolce" C,2 D,2 D,,2 | E,2 C,2 D,2 | %70
 G,,2 A,,2- [A,,,A,,]2 | ([D,,A,,]C,D,A,,D,A,,) | F,,2 z2 F,2 | (G,F,G,B,,D,B,,) | G,,2 z2 ^G,2 | %75
 (A,^G,A,E,A,=G,) | (F,E,F,D,G,F,) | (E,D,E,C,D,A,,) | (B,,G,,) A,,2- [A,,,A,,]2 | %79
 ([D,,A,,]C,D,A,,D,A,,) | F,,2 z2 F,2 | (G,F,G,B,,D,B,,) | G,,2 z2 ^G,2 | (A,^G,A,E,A,=G,) | %84
 (F,E,F,D,G,F,) | (E,D,E,C,D,A,,) | B,,G,, A,,2- [A,,,A,,]2 | ([D,,A,,]C,D,A,,D,A,,) | %88
 F,,2 z2 G,,2 | A,,2 z2 B,,2 | (F,,G,,) A,,2- [A,,,A,,]2 | ([D,,A,,]C,D,A,,D,A,,) | F,,2 z2 G,,2 | %93
 A,,2 z2 !fermata!B,,2 | (F,,G,,) A,,2- [A,,,A,,]2 | ([D,,A,,]C,D,A,,D,A,,) | %96
"^deciso" D,,2 D,2 D,2- | ([D,,D,]2 [C,,C,]2 [A,,,A,,]2 | [D,,D,]2) ([G,,G,]2 [^G,,^G,]2) | %99
 ([A,,A,]3 [=G,,=G,] [F,,F,]2) | [C,,C,]2 [D,,D,]2 [D,,D,]2 | [E,,E,]2 [C,,C,]2 [D,,D,]2 | %102
"^rall." G,,2 A,,2- [A,,,A,,]2 | [D,,A,,]4 z2 |] %104
V:6
 D,,6 | x6 | x6 | x6 | x6 | x6 | x6 | x6 | x4 D,2- | E,4 x2 | D,2 x4 | x6 | x6 | x6 | x6 | x6 | %16
 x6 | (D,2 C,2 A,,2) | x6 | x6 | x6 | x6 | x6 | x6 | x6 | x6 | x6 | x6 | x6 | x6 | x6 | x6 | x6 | %33
 x6 | x6 | x6 | x6 | x6 | x6 | x6 | x6 | x6 | x6 | x6 | x6 | x6 | x6 | x6 | D,,6 | x6 | x6 | x6 | %52
 x6 | x6 | x6 | x6 | x6 | (D,2 C,2 A,,2) | D,2 x4 | x6 | x6 | x6 | x6 | x6 | x6 | E,6 | x6 | x6 | %68
 x6 | x6 | x6 | x6 | x6 | x6 | x6 | x6 | x6 | x6 | x6 | x6 | x6 | x6 | x6 | x6 | x6 | x6 | x6 | %87
 x6 | x6 | x6 | x6 | x6 | x6 | x6 | x6 | x6 | D,,6 | x6 | x6 | x6 | x6 | x6 | x6 | x6 |] %104
V:7
 x6 | x6 | x6 | x6 | x6 | x6 | x5 d/e/ | x6 | x6 | x6 | x6 | x6 | x6 | x6 | x6 | x6 | x6 | x6 | %18
 x6 | x6 | x6 | x6 | x6 | x6 | x6 | x6 | x6 | x6 | x6 | x6 | x6 | x6 | x6 | x6 | x6 | x6 | x6 | %37
 x6 | x6 | x6 | x6 | x6 | x6 | x6 | x6 | x6 | x6 | x6 | x6 | x6 | x6 | x6 | x6 | x6 | x5 d/e/ | %55
 x6 | x6 | x6 | x6 | x6 | x6 | x6 | x6 | x6 | x6 | x6 | x6 | x6 | x6 | x6 | x6 | x6 | x6 | x6 | %74
 x6 | x6 | x6 | x6 | x6 | x6 | x6 | x6 | x6 | x6 | x6 | x6 | x6 | x6 | x6 | x6 | x6 | x6 | x6 | %93
 x6 | x6 | x6 | x6 | x6 | x6 | x6 | x6 | x6 | x5 d/e/ | x6 |] %104

